X: 1134
T: If There Weren't Any Women in the World
M: 4/4
L: 1/8
R: barndance
K: Dmaj
|: (3efg |
a>ba>f d>e (3fed | B2 _B2 A2 d>e | f2 (fga b>af>d | e3 ^d e2 f>g |
a2 f2 d2 e>d | B2 G>B A2 d>e | f>^ef>d =e>^de>c  | d2 d2 d2 :|
|: f>a |
b2 b>c' (3d'e'd' (3d'c'b | b2 a2 f2 d>f | a2 ^g>a b>af>d | e2 c2 A2 (3efg |
a2 a>f d2 f>d | B>^AB>G =A2 (3cde | f2 f>d e2 (3edc | d2 A2 D2 :|
